X:537
T: "Hochzeitslied"
N: Z1217
O: Europa, Mitteleuropa, Schweiz
R: Liebes - Lied, Hochzeits - Lied
M: 2/4
L: 1/16
K: B
F2 | B2BAB2c2 | =d2B2A2
Bd | e2=d2c2Bc | =d2c2B2
dc | B2Bc=d2B2 | BA=GAF4
f4e4 | =d4=A4
d2dde2ee | f2f2e2
=de | f2=d2d2cd | e2c2c2
ec | =d2B2BcdB | c=dcBA2
F2 | B3c=d3e | fef=gf2
e2 | =dcBddcBA | B4z2

